X: 1
T: Scotch Mary (in D Mixolydian)
M: C|
L: 1/8
R: reel
K:Dmix 
"D"FGAG FGAG|FDA,B, "C"CDEG|"D"FGAG FGAG|"C"FDEF "D"D3E|
"D"FGAG FGAG|FDA,B, "C"CDEG|"D"FGAB "C"cBAG|1"C"FDEF "D"D3E :|\
[2 "C"FDEF "D"DABc |]
|:"D"d3c ABAG|FGAB "C"c2Bc| "D"Addc "C"ABAG| "D"FDEF DABc|
"D"d3c ABAG| FGAB "C"cABc| "D"dBcA BGAG|1 "C"FDEF "D"DABc:|\
[2 "C"FDEF "D"D4|]

%%scale .5
%%text 4/28/12 

#include "RightHeader.h"
%%text Set 111 NEFFA 2012 Irish Reel Set continued
%%scale .8
$SmallLMargin
$SmallRMargin
